src/assets/svg/skills/typescript.svg

<svg xmlns="http://www.w3.org/2000/svg" width="256" height="256" fill="none"><path fill="#007ACC" d="M0 128v128h256V0H0v128Z"/><path fill="#fff" d="m56.612 128.85-.081 10.483h33.32v94.68H113.42v-94.68h33.32v-10.28c0-5.689-.122-10.443-.284-10.565-.122-.163-20.399-.244-44.983-.204l-44.74.122-.121 10.444ZM206.566 118.109c6.501 1.625 11.459 4.51 16.01 9.224 2.357 2.519 5.851 7.111 6.136 8.208.081.325-11.053 7.802-17.798 11.987-.244.163-1.219-.894-2.316-2.519-3.292-4.795-6.746-6.867-12.028-7.233-7.762-.528-12.76 3.535-12.719 10.321 0 1.991.284 3.17 1.097 4.795 1.707 3.535 4.876 5.648 14.832 9.956 18.326 7.883 26.169 13.084 31.045 20.48 5.445 8.249 6.664 21.414 2.966 31.207-4.063 10.647-14.141 17.88-28.322 20.277-4.389.772-14.791.65-19.505-.203-10.281-1.829-20.033-6.908-26.047-13.572-2.357-2.601-6.949-9.387-6.664-9.874.122-.163 1.178-.813 2.357-1.504 1.137-.65 5.445-3.129 9.508-5.486l7.355-4.266 1.544 2.275c2.154 3.292 6.868 7.802 9.712 9.306 8.168 4.307 19.383 3.697 24.909-1.26 2.357-2.154 3.332-4.389 3.332-7.68 0-2.966-.365-4.267-1.91-6.502-1.991-2.844-6.054-5.241-17.594-10.24-13.207-5.688-18.896-9.224-24.097-14.831-3.007-3.251-5.851-8.452-7.03-12.8-.975-3.617-1.219-12.678-.447-16.336 2.723-12.759 12.353-21.658 26.25-24.299 4.511-.854 14.995-.528 19.424.569Z"/></svg>

<svg width="256" height="256" viewBox="0 0 256 256" fill="none" xmlns="http://www.w3.org/2000/svg">
<path d="M0 128V256H128H256V128V0H128H0V128Z" fill="#007ACC"/>
<path d="M56.612 128.85L56.5307 139.333H73.191H89.8513L89.8513 186.673V234.013H101.635H113.42V186.673L113.42 139.333H130.08H146.74V129.053C146.74 123.364 146.618 118.61 146.456 118.488C146.334 118.325 126.057 118.244 101.473 118.284L56.7339 118.406L56.612 128.85Z" fill="white"/>
<path d="M206.566 118.109C213.067 119.734 218.025 122.619 222.576 127.333C224.933 129.852 228.427 134.444 228.712 135.541C228.793 135.866 217.659 143.343 210.914 147.528C210.67 147.691 209.695 146.634 208.598 145.009C205.306 140.214 201.852 138.142 196.57 137.776C188.808 137.248 183.81 141.311 183.851 148.097C183.851 150.088 184.135 151.267 184.948 152.892C186.655 156.427 189.824 158.54 199.78 162.848C218.106 170.731 225.949 175.932 230.825 183.328C236.27 191.577 237.489 204.742 233.791 214.535C229.728 225.182 219.65 232.415 205.469 234.812C201.08 235.584 190.678 235.462 185.964 234.609C175.683 232.78 165.931 227.701 159.917 221.037C157.56 218.436 152.968 211.65 153.253 211.163C153.375 211 154.431 210.35 155.61 209.659C156.747 209.009 161.055 206.53 165.118 204.173L172.473 199.907L174.017 202.182C176.171 205.474 180.885 209.984 183.729 211.488C191.897 215.795 203.112 215.185 208.638 210.228C210.995 208.074 211.97 205.839 211.97 202.548C211.97 199.582 211.605 198.281 210.06 196.046C208.069 193.202 204.006 190.805 192.466 185.806C179.259 180.118 173.57 176.582 168.369 170.975C165.362 167.724 162.518 162.523 161.339 158.175C160.364 154.558 160.12 145.497 160.892 141.839C163.615 129.08 173.245 120.181 187.142 117.54C191.653 116.686 202.137 117.012 206.566 118.109Z" fill="white"/>
</svg>
